icons/svg/twitter-circle.svg

﻿<?xml version="1.0" encoding="utf-8"?>
<!DOCTYPE svg PUBLIC "-//W3C//DTD SVG 1.1//EN" "http://www.w3.org/Graphics/SVG/1.1/DTD/svg11.dtd">
<svg xmlns="http://www.w3.org/2000/svg" xmlns:xlink="http://www.w3.org/1999/xlink" version="1.1" baseProfile="full" width="24" height="24" viewBox="0 0 24.00 24.00" enable-background="new 0 0 24.00 24.00" xml:space="preserve">
	<path fill="#000000" fill-opacity="1" stroke-width="0.2" stroke-linejoin="round" d="M 17.7074,9.32817C 18.1864,8.92817 18.7474,8.45117 18.9994,7.92117C 18.5894,8.12517 18.1044,8.25817 17.5604,8.33217C 18.0584,7.96717 18.4664,7.51417 18.6764,6.86317C 18.1634,7.13517 17.6314,7.38317 16.9744,7.51017C 15.4244,5.63017 11.7124,7.14817 12.3664,9.94517C 9.75942,9.78517 8.17042,8.60517 6.84942,7.15617C 6.0961,8.38116 6.75141,10.2302 7.64242,10.7362C 7.18142,10.7092 6.83343,10.5662 6.49842,10.4142C 6.54442,11.9532 7.39342,12.6872 8.58142,13.0862C 8.21842,13.1642 7.81742,13.1822 7.43743,13.1152C 7.80542,14.1932 8.58342,14.8632 9.90142,14.9922C 9.00842,15.7562 7.34342,16.2932 5.99942,16.0782C 7.14543,16.8072 8.46442,17.3922 10.2824,17.3102C 14.6904,17.1112 17.6434,13.9472 17.7074,9.32817 Z M 12,2.00001C 17.5228,2.00001 22,6.47716 22,12C 22,17.5229 17.5228,22 12,22C 6.47715,22 2,17.5229 2,12C 2,6.47716 6.47715,2.00001 12,2.00001 Z "/>
</svg>

<svg xmlns="http://www.w3.org/2000/svg" version="1.1" baseProfile="full" width="24" height="24" viewBox="0 0 24.00 24.00" xml:space="preserve"><path fill="#000" fill-opacity="1" stroke-width=".2" stroke-linejoin="round" d="M17.707 9.328c.48-.4 1.04-.877 1.292-1.407-.41.205-.896.338-1.44.412.498-.365.906-.818 1.116-1.47-.513.273-1.045.52-1.702.648-1.55-1.88-5.262-.362-4.608 2.435-2.607-.16-4.196-1.34-5.517-2.79-.754 1.226-.1 3.075.792 3.58-.46-.026-.81-.17-1.144-.32.046 1.538.895 2.272 2.083 2.67-.362.08-.763.097-1.143.03.368 1.078 1.146 1.748 2.464 1.877-.892.764-2.557 1.3-3.9 1.086 1.145.73 2.464 1.314 4.282 1.232 4.408-.2 7.36-3.363 7.425-7.982zM12 2c5.523 0 10 4.477 10 10s-4.477 10-10 10S2 17.523 2 12 6.477 2 12 2z"/></svg>
